image/social2.svg

<svg fill="none" height="20" viewBox="0 0 20 20" width="20" xmlns="http://www.w3.org/2000/svg" xmlns:xlink="http://www.w3.org/1999/xlink"><clipPath id="a"><path d="m0 0h20v20h-20z"/></clipPath><g clip-path="url(#a)"><path d="m10.0642 2.49805c.0071.00001.0148.00003.023.00005l.0885.00028c1.0272.00377 6.2336.04151 7.6374.41889.8605.23081 1.5381.911 1.7681 1.77442.1266.47437.2149 1.10487.2764 1.75331l.0119.12989c.0097.10837.0186.21698.0269.3252l.0096.12962c.0822 1.14264.0918 2.21189.0929 2.44583l.0001.03156v.00681.01772.0068l-.0001.03156c-.0012.24278-.0115 1.38511-.1025 2.57551l-.0102.13-.011.1302c-.0619.7157-.1547 1.4264-.294 1.9481-.23.8635-.9076 1.5438-1.7681 1.7745-1.4506.3901-6.9615.4174-7.7259.4193l-.0589.0001c-.0048 0-.0091 0-.0127 0h-.02402s-.00551 0-.00917 0l-.07159-.0001c-.38631-.001-1.98487-.0084-3.65896-.0659l-.21403-.0076c-.03571-.0013-.07144-.0027-.10716-.004l-.21429-.0085-.21378-.0091c-1.38689-.0608-2.7092-.1606-3.31749-.3242-.86053-.2307-1.538152-.911-1.768142-1.7745-.139333-.5217-.232221-1.2324-.294147-1.9481l-.010921-.1302-.01026-.13c-.0877667-1.1471-.10050696-2.24958-.10235636-2.54549l-.000221-.04236c-.00001551-.00382-.00002843-.00733-.0000392-.01053v-.0487c.00001077-.00321.00002369-.00672.0000392-.01053l.000221-.04236c.00167492-.26798.01228276-1.19752.07946596-2.22263l.008696-.12859c.0014996-.0215.0030246-.04304.0045755-.0646l.0096189-.12962c.00828-.10822.017227-.21683.026896-.3252l.011953-.12989c.061531-.64844.149813-1.27894.276479-1.75331.22999-.86342.907612-1.54361 1.768142-1.77442.60829-.16353 1.9306-.26329 3.31749-.32414l.21378-.00905.21429-.00847c.03572-.00136.07145-.0027.10716-.00401l.21403-.00762c1.56724-.0538 3.06827-.06376 3.57047-.0656l.08849-.00028c.00822-.00002.01589-.00004.023-.00005zm-2.06514 4.01399v6.02146l5.19594-3.01057z" fill="#ddd"/></g></svg>

<svg width="20" height="20" viewBox="0 0 20 20" fill="none" xmlns="http://www.w3.org/2000/svg">
<g clip-path="url(#clip0_2002_6664)">
<path d="M10.0642 2.49805C10.0713 2.49806 10.079 2.49808 10.0872 2.4981L10.1757 2.49838C11.2029 2.50215 16.4093 2.53989 17.8131 2.91727C18.6736 3.14808 19.3512 3.82827 19.5812 4.69169C19.7078 5.16606 19.7961 5.79656 19.8576 6.445L19.8695 6.57489C19.8792 6.68326 19.8881 6.79187 19.8964 6.90009L19.906 7.02971C19.9882 8.17235 19.9978 9.2416 19.9989 9.47554L19.999 9.5071C19.999 9.50969 19.999 9.51391 19.999 9.51391V9.53163C19.999 9.53163 19.999 9.53585 19.999 9.53843L19.9989 9.56999C19.9977 9.81277 19.9874 10.9551 19.8964 12.1455L19.8862 12.2755L19.8752 12.4057C19.8133 13.1214 19.7205 13.8321 19.5812 14.3538C19.3512 15.2173 18.6736 15.8976 17.8131 16.1283C16.3625 16.5184 10.8516 16.5457 10.0872 16.5476L10.0283 16.5477C10.0235 16.5477 10.0192 16.5477 10.0156 16.5477L9.99158 16.5477C9.99158 16.5477 9.98607 16.5477 9.98241 16.5477L9.91082 16.5476C9.52451 16.5466 7.92595 16.5392 6.25186 16.4817L6.03783 16.4741C6.00212 16.4728 5.96639 16.4714 5.93067 16.4701L5.71638 16.4616L5.5026 16.4525C4.11571 16.3917 2.7934 16.2919 2.18511 16.1283C1.32458 15.8976 0.646958 15.2173 0.416968 14.3538C0.277635 13.8321 0.184747 13.1214 0.122821 12.4057L0.1119 12.2755L0.10164 12.1455C0.0138733 10.9984 0.00113304 9.89592 -0.000716363 9.60001L-0.00093736 9.55765C-0.000952869 9.55383 -0.000965793 9.55032 -0.000976562 9.54712V9.49842C-0.000965793 9.49521 -0.000952869 9.4917 -0.00093736 9.48789L-0.000716363 9.44553C0.000958563 9.17755 0.0115664 8.24801 0.0787496 7.2229L0.0874456 7.09431C0.0889452 7.07281 0.0904702 7.05127 0.0920211 7.02971L0.10164 6.90009C0.10992 6.79187 0.118867 6.68326 0.128536 6.57489L0.140489 6.445C0.20202 5.79656 0.290302 5.16606 0.416968 4.69169C0.646958 3.82827 1.32458 3.14808 2.18511 2.91727C2.7934 2.75374 4.11571 2.65398 5.5026 2.59313L5.71638 2.58408L5.93067 2.57561C5.96639 2.57425 6.00212 2.57291 6.03783 2.5716L6.25186 2.56398C7.8191 2.51018 9.32013 2.50022 9.82233 2.49838L9.91082 2.4981C9.91904 2.49808 9.92671 2.49806 9.93382 2.49805H10.0642ZM7.99906 6.51204V12.5335L13.195 9.52293L7.99906 6.51204Z" fill="#DDDDDD"/>
</g>
<defs>
<clipPath id="clip0_2002_6664">
<rect width="20" height="20" fill="white"/>
</clipPath>
</defs>
</svg>
